X: 7379
T: Clinch, The
R: polka
M: 2/4
K: Dmajor
F>G|A2F2D2 F>G|A>GA>B A2 d>e|f2 a2 B2 c>d|e>dc>B A>GF>G|
A2F2D2 F>G|A>GA>B A2 d>e|f2 g>f e>AB>c|1 d2 f2 d2 ]:|2 d2 f2 d3 e||
f2 f2 A>df>g|a2 a2 f3 a|g2 g2 e>ce>g|f2 d2 A3 e|
f2 f2 A>df>g|a2 a2 f3 a|g>fe>d c>AB>c|1 d2 f2 d3 e ]:|2 d2 f2 d2||

